COLOR/action 16/16/stock_xfburn-blank-cdrw.svg

<svg height="16" width="16" xmlns="http://www.w3.org/2000/svg" xmlns:xlink="http://www.w3.org/1999/xlink"><linearGradient id="a" gradientTransform="matrix(.31496059 0 0 .31496072 .166665 -77.709954)" gradientUnits="userSpaceOnUse" x1="13.735326" x2="38.099998" y1="249.69423" y2="292.76666"><stop offset="0" stop-color="#cdcdcd"/><stop offset="1" stop-color="#d9d9d9"/></linearGradient><circle cx="7.999999" cy="7.999981" fill="url(#a)" r="7.499999"/><path d="m7.9999989.50000288a7.4999983 7.4999983 0 0 0 -7.4999989 7.49999882h7.4999989zm0 7.49999882v7.4999983a7.4999983 7.4999983 0 0 0 7.4999981-7.4999983z" fill="#fff" opacity=".2"/><path d="m13.303305 2.6966949a7.4999983 7.4999983 0 0 0 -10.6066015 0l5.3032954 5.3033068zm-5.3033061 5.3033068-5.3032954 5.3032943a7.4999983 7.4999983 0 0 0 10.6066015 0z" opacity=".02"/><path d="m5.9541492.78454129a7.4999983 7.4999983 0 0 0 -.1361884.0461538 7.4999983 7.4999983 0 0 1 .3626884-.0983077 7.4999983 7.4999983 0 0 0 -.2265.0521539zm.5905961-.13604998a7.4999983 7.4999983 0 0 1 .3694615-.0613846 7.4999983 7.4999983 0 0 0 -.3694615.0613846zm-1.0807268.3019038a7.4999983 7.4999983 0 0 0 -.3506999.13391539 7.4999983 7.4999983 0 0 1 .3506999-.13391539zm1.822742-.41053839a7.4999983 7.4999983 0 0 1 .3722423-.0242308 7.4999983 7.4999983 0 0 0 -.3722423.0242308zm-2.5132611.69874608a7.4999983 7.4999983 0 0 0 -.3370961.1689922 7.4999983 7.4999983 0 0 1 .3370961-.1689922zm3.2615649-.73285377a7.4999983 7.4999983 0 0 1 .3740538.0133846 7.4999983 7.4999983 0 0 0 -.3740538-.0133846zm-3.9197879 1.08849217a7.4999983 7.4999983 0 0 0 -.3189346.2019115 7.4999983 7.4999983 0 0 1 .3189346-.2019115zm4.6666378-1.04771525a7.4999983 7.4999983 0 0 1 .3718498.05065379 7.4999983 7.4999983 0 0 0 -.3718498-.05065379zm-5.2867839 1.46763445a7.4999983 7.4999983 0 0 0 -.2972307.2329153 7.4999983 7.4999983 0 0 1 .2972307-.2329153zm6.0283027-1.35219217a7.4999983 7.4999983 0 0 1 .3623428.0868846 7.4999983 7.4999983 0 0 0 -.3623428-.0868846zm-6.7114718 1.92805357a7.4999983 7.4999983 0 0 0 -.085038.079269 7.4999983 7.4999983 0 0 1 .085038-.079269zm-.1122692.1086923a7.4999983 7.4999983 0 0 0 -1.1940345 1.5511613l6.4951376 3.7499647zm5.3011031 5.301126 5.3010899 5.3011369a7.4999983 7.4999983 0 0 0 1.194046-1.551161zm2.2473229-7.1493219a7.4999983 7.4999983 0 0 1 .352592.12283844 7.4999983 7.4999983 0 0 0 -.352592-.12283844zm.702102.2599153a7.4999983 7.4999983 0 0 1 .340327.1583654 7.4999983 7.4999983 0 0 0 -.340327-.1583654zm.673073.3289038a7.4999983 7.4999983 0 0 1 .123023.073039l.0046-.00808a7.4999983 7.4999983 0 0 0 -.12745-.065308zm-7.368032 13.0479547-.00462.0081a7.4999983 7.4999983 0 0 0 .1274654.06531 7.4999983 7.4999983 0 0 1 -.1230231-.07304zm.4557807.2436a7.4999983 7.4999983 0 0 0 .3403153.158354 7.4999983 7.4999983 0 0 1 -.3403153-.158354zm.6898268.295431a7.4999983 7.4999983 0 0 0 .3526038.12285 7.4999983 7.4999983 0 0 1 -.3526038-.12285zm7.8738435-1.695865a7.4999983 7.4999983 0 0 1 -.08504.07927 7.4999983 7.4999983 0 0 0 .08504-.07927zm-7.1588744 1.920392a7.4999983 7.4999983 0 0 0 .3623423.08689 7.4999983 7.4999983 0 0 1 -.3623423-.08689zm6.6878744-1.498188a7.4999983 7.4999983 0 0 1 -.297219.232915 7.4999983 7.4999983 0 0 0 .297219-.232915zm-5.9558514 1.649884a7.4999983 7.4999983 0 0 0 .37185.05065 7.4999983 7.4999983 0 0 1 -.37185-.05065zm5.3574214-1.198961a7.4999983 7.4999983 0 0 1 -.318946.201911 7.4999983 7.4999983 0 0 0 .318946-.201911zm-4.6127753 1.277019a7.4999983 7.4999983 0 0 0 .3740422.01338 7.4999983 7.4999983 0 0 1 -.3740422-.01338zm3.9727023-.888462a7.4999983 7.4999983 0 0 1 -.337096.168993 7.4999983 7.4999983 0 0 0 .337096-.168993zm-3.2225871.891923a7.4999983 7.4999983 0 0 0 .3722423-.02423 7.4999983 7.4999983 0 0 1 -.3722423.02423zm2.5456711-.568638a7.4999983 7.4999983 0 0 1 -.350687.133904 7.4999983 7.4999983 0 0 0 .350687-.133904zm-1.800875.497169a7.4999983 7.4999983 0 0 0 .36945-.06138 7.4999983 7.4999983 0 0 1 -.36945.06138zm1.096234-.243507a7.4999983 7.4999983 0 0 1 -.3626762.09831 7.4999983 7.4999983 0 0 0 .3626762-.09831z" fill="#faf8f6"/><circle cx="7.999999" cy="-7.999999" fill="#aea795" r="3.461538" transform="scale(1 -1)"/><circle cx="7.999999" cy="7.999999" fill="#faf8f6" r="2.307692"/><circle cx="7.999999" cy="7.999999" fill="#4d4d4d" r="1.153846"/><path d="m15.490234 7.7128906a7.499999 7.499999 0 0 1 -7.490234 7.2871094 7.499999 7.499999 0 0 1 -7.49023438-7.2128906 7.499999 7.499999 0 0 0 -.00976562.2128906 7.499999 7.499999 0 0 0 7.5 7.5 7.499999 7.499999 0 0 0 7.5-7.5 7.499999 7.499999 0 0 0 -.009766-.2871094z" fill="#030303" opacity=".2"/><path d="m8 .5a7.499999 7.499999 0 0 0 -7.5 7.5 7.499999 7.499999 0 0 0 .00976562.2871094 7.499999 7.499999 0 0 1 7.49023438-7.2871094 7.499999 7.499999 0 0 1 7.490234 7.2128906 7.499999 7.499999 0 0 0 .009766-.2128906 7.499999 7.499999 0 0 0 -7.5-7.5z" fill="#fff" opacity=".3"/><g fill="#f76363" transform="matrix(-.43171026 0 0 -.43149781 16.390646 15.243748)"><path d="m12.032543 1.4216386-8.9948851 15.1490714c-.238503.401708-.1057194.917641.2959889 1.156145l7.9758092 4.735823c.401708.238503.915655.105719 1.154158-.29599l9.471647-15.9516177c.238502-.4017083.107705-.9176418-.294003-1.1561447l-6.126375-3.637287z"/><path d="m12.032543 1.4216386-8.9948851 15.1490714c-.238503.401708-.1057194.917641.2959889 1.156145l7.9758092 4.735823c.401708.238503.915655.105719 1.154158-.29599l9.471647-15.9516177c.238502-.4017083.107705-.9176418-.294003-1.1561447l-6.126375-3.637287z"/></g><g stroke-width=".434783"><path d="m6 14.630435v.869565h3.043478v-.869565zm5.652174 0v.869565h3.913043v-.869565z" fill="#666"/><path d="m6 14.630435v.217391h3.043478v-.217391zm5.652174 0v.217391h3.913043v-.217391z" fill="#fff" opacity=".3"/><path d="m6 15.282609v.217391h3.043478v-.217391zm5.652174 0v.217391h3.913043v-.217391z" opacity=".2"/></g><g fill="#f76363" stroke-width=".998159" transform="matrix(.43171026 0 0 .43309085676 5.60935399766 5.28345470992)"><path d="m5.8847656 12.03125-2.8457031 4.775391c-.238502.40023-.1087392.912765.2929687 1.15039l6.1269532 3.625h3.4824216l2.386719-4.003906z" fill="#1a7fd4"/><g fill="none"><path d="m7.250072 9.7386166-4.211889 7.0673364c-.238502.40023-.107705.914266.294003 1.151892l6.126375 3.623908h3.48234l3.765488-6.318459"/><path d="m16.706389 15.263294 5.229397-8.77489c.238503-.4002304.105719-.9142656-.295989-1.1518923l-7.975809-4.71840323c-.401708-.23762572-.915655-.10533014-1.154158.29490126l-5.259758 8.82560687"/></g></g><path d="m21.949219 5.7753906c-.01929.063919-.03071.1293545-.06641.1894532l-8.931637 15.0351562h-3.4570314l-6.0839844-3.609375c-.1801873-.106929-.2979842-.273559-.359375-.457031-.1079713.359576.021263.756385.359375.957031l6.0839844 3.609375h3.4570314l8.93164-15.0351562c.129543-.2180792.140853-.4671541.06641-.6894532z" opacity=".2" stroke-width=".992689" transform="matrix(.43478261241 0 0 .43478263023 5.56521723581 5.28260854271)"/><path d="m13.355469.5078125c-.3229-.0441071-.654418.10529132-.832031.40429688l-9.4042974 15.83007862c-.1298984.218679-.1429921.468659-.068359.691406.019402-.06461.032287-.13068.068359-.191406l9.4042974-15.8300786c.236817-.3986741.747615-.531623 1.146484-.2949219l7.917969 4.7011719c.180683.1072231.299678.2729427.361328.4570312.108685-.3600987-.02259-.7560112-.361328-.9570312l-7.917969-4.7011719c-.09972-.0591753-.20682-.0946726-.314453-.109375z" fill="#fff" opacity=".3" stroke-width=".992689" transform="matrix(.43478261241 0 0 .43478263023 5.56521723581 5.28260854271)"/></svg>

<?xml version="1.0" encoding="UTF-8" standalone="no"?>
<svg
   xmlns:dc="http://purl.org/dc/elements/1.1/"
   xmlns:cc="http://creativecommons.org/ns#"
   xmlns:rdf="http://www.w3.org/1999/02/22-rdf-syntax-ns#"
   xmlns:svg="http://www.w3.org/2000/svg"
   xmlns="http://www.w3.org/2000/svg"
   xmlns:sodipodi="http://sodipodi.sourceforge.net/DTD/sodipodi-0.dtd"
   xmlns:inkscape="http://www.inkscape.org/namespaces/inkscape"
   height="16"
   width="16"
   version="1.1"
   id="svg33"
   sodipodi:docname="stock_xfburn-blank-cdrw.svg"
   inkscape:version="0.92.4 (5da689c313, 2019-01-14)">
  <metadata
     id="metadata39">
    <rdf:RDF>
      <cc:Work
         rdf:about="">
        <dc:format>image/svg+xml</dc:format>
        <dc:type
           rdf:resource="http://purl.org/dc/dcmitype/StillImage" />
      </cc:Work>
    </rdf:RDF>
  </metadata>
  <defs
     id="defs37" />
  <sodipodi:namedview
     pagecolor="#ffffff"
     bordercolor="#666666"
     borderopacity="1"
     objecttolerance="10"
     gridtolerance="10"
     guidetolerance="10"
     inkscape:pageopacity="0"
     inkscape:pageshadow="2"
     inkscape:window-width="1920"
     inkscape:window-height="1016"
     id="namedview35"
     showgrid="false"
     inkscape:zoom="14.75"
     inkscape:cx="8"
     inkscape:cy="8"
     inkscape:window-x="0"
     inkscape:window-y="27"
     inkscape:window-maximized="1"
     inkscape:current-layer="svg33" />
  <linearGradient
     id="a"
     gradientTransform="matrix(.31496059 0 0 .31496072 .166665 -77.709954)"
     gradientUnits="userSpaceOnUse"
     x1="13.735326"
     x2="38.099998"
     y1="249.69423"
     y2="292.76666">
    <stop
       offset="0"
       stop-color="#cdcdcd"
       id="stop2" />
    <stop
       offset="1"
       stop-color="#d9d9d9"
       id="stop4" />
  </linearGradient>
  <circle
     cx="7.999999"
     cy="7.999981"
     fill="url(#a)"
     r="7.499999"
     id="circle7" />
  <path
     d="m7.9999989.50000288a7.4999983 7.4999983 0 0 0 -7.4999989 7.49999882h7.4999989zm0 7.49999882v7.4999983a7.4999983 7.4999983 0 0 0 7.4999981-7.4999983z"
     fill="#fff"
     opacity=".2"
     id="path9" />
  <path
     d="m13.303305 2.6966949a7.4999983 7.4999983 0 0 0 -10.6066015 0l5.3032954 5.3033068zm-5.3033061 5.3033068-5.3032954 5.3032943a7.4999983 7.4999983 0 0 0 10.6066015 0z"
     opacity=".02"
     id="path11" />
  <path
     d="m5.9541492.78454129a7.4999983 7.4999983 0 0 0 -.1361884.0461538 7.4999983 7.4999983 0 0 1 .3626884-.0983077 7.4999983 7.4999983 0 0 0 -.2265.0521539zm.5905961-.13604998a7.4999983 7.4999983 0 0 1 .3694615-.0613846 7.4999983 7.4999983 0 0 0 -.3694615.0613846zm-1.0807268.3019038a7.4999983 7.4999983 0 0 0 -.3506999.13391539 7.4999983 7.4999983 0 0 1 .3506999-.13391539zm1.822742-.41053839a7.4999983 7.4999983 0 0 1 .3722423-.0242308 7.4999983 7.4999983 0 0 0 -.3722423.0242308zm-2.5132611.69874608a7.4999983 7.4999983 0 0 0 -.3370961.1689922 7.4999983 7.4999983 0 0 1 .3370961-.1689922zm3.2615649-.73285377a7.4999983 7.4999983 0 0 1 .3740538.0133846 7.4999983 7.4999983 0 0 0 -.3740538-.0133846zm-3.9197879 1.08849217a7.4999983 7.4999983 0 0 0 -.3189346.2019115 7.4999983 7.4999983 0 0 1 .3189346-.2019115zm4.6666378-1.04771525a7.4999983 7.4999983 0 0 1 .3718498.05065379 7.4999983 7.4999983 0 0 0 -.3718498-.05065379zm-5.2867839 1.46763445a7.4999983 7.4999983 0 0 0 -.2972307.2329153 7.4999983 7.4999983 0 0 1 .2972307-.2329153zm6.0283027-1.35219217a7.4999983 7.4999983 0 0 1 .3623428.0868846 7.4999983 7.4999983 0 0 0 -.3623428-.0868846zm-6.7114718 1.92805357a7.4999983 7.4999983 0 0 0 -.085038.079269 7.4999983 7.4999983 0 0 1 .085038-.079269zm-.1122692.1086923a7.4999983 7.4999983 0 0 0 -1.1940345 1.5511613l6.4951376 3.7499647zm5.3011031 5.301126 5.3010899 5.3011369a7.4999983 7.4999983 0 0 0 1.194046-1.551161zm2.2473229-7.1493219a7.4999983 7.4999983 0 0 1 .352592.12283844 7.4999983 7.4999983 0 0 0 -.352592-.12283844zm.702102.2599153a7.4999983 7.4999983 0 0 1 .340327.1583654 7.4999983 7.4999983 0 0 0 -.340327-.1583654zm.673073.3289038a7.4999983 7.4999983 0 0 1 .123023.073039l.0046-.00808a7.4999983 7.4999983 0 0 0 -.12745-.065308zm-7.368032 13.0479547-.00462.0081a7.4999983 7.4999983 0 0 0 .1274654.06531 7.4999983 7.4999983 0 0 1 -.1230231-.07304zm.4557807.2436a7.4999983 7.4999983 0 0 0 .3403153.158354 7.4999983 7.4999983 0 0 1 -.3403153-.158354zm.6898268.295431a7.4999983 7.4999983 0 0 0 .3526038.12285 7.4999983 7.4999983 0 0 1 -.3526038-.12285zm7.8738435-1.695865a7.4999983 7.4999983 0 0 1 -.08504.07927 7.4999983 7.4999983 0 0 0 .08504-.07927zm-7.1588744 1.920392a7.4999983 7.4999983 0 0 0 .3623423.08689 7.4999983 7.4999983 0 0 1 -.3623423-.08689zm6.6878744-1.498188a7.4999983 7.4999983 0 0 1 -.297219.232915 7.4999983 7.4999983 0 0 0 .297219-.232915zm-5.9558514 1.649884a7.4999983 7.4999983 0 0 0 .37185.05065 7.4999983 7.4999983 0 0 1 -.37185-.05065zm5.3574214-1.198961a7.4999983 7.4999983 0 0 1 -.318946.201911 7.4999983 7.4999983 0 0 0 .318946-.201911zm-4.6127753 1.277019a7.4999983 7.4999983 0 0 0 .3740422.01338 7.4999983 7.4999983 0 0 1 -.3740422-.01338zm3.9727023-.888462a7.4999983 7.4999983 0 0 1 -.337096.168993 7.4999983 7.4999983 0 0 0 .337096-.168993zm-3.2225871.891923a7.4999983 7.4999983 0 0 0 .3722423-.02423 7.4999983 7.4999983 0 0 1 -.3722423.02423zm2.5456711-.568638a7.4999983 7.4999983 0 0 1 -.350687.133904 7.4999983 7.4999983 0 0 0 .350687-.133904zm-1.800875.497169a7.4999983 7.4999983 0 0 0 .36945-.06138 7.4999983 7.4999983 0 0 1 -.36945.06138zm1.096234-.243507a7.4999983 7.4999983 0 0 1 -.3626762.09831 7.4999983 7.4999983 0 0 0 .3626762-.09831z"
     fill="#faf8f6"
     id="path13" />
  <circle
     cx="7.999999"
     cy="-7.999999"
     fill="#aea795"
     r="3.461538"
     transform="scale(1 -1)"
     id="circle15" />
  <circle
     cx="7.999999"
     cy="7.999999"
     fill="#faf8f6"
     r="2.307692"
     id="circle17" />
  <circle
     cx="7.999999"
     cy="7.999999"
     fill="#4d4d4d"
     r="1.153846"
     id="circle19" />
  <path
     d="m15.490234 7.7128906a7.499999 7.499999 0 0 1 -7.490234 7.2871094 7.499999 7.499999 0 0 1 -7.49023438-7.2128906 7.499999 7.499999 0 0 0 -.00976562.2128906 7.499999 7.499999 0 0 0 7.5 7.5 7.499999 7.499999 0 0 0 7.5-7.5 7.499999 7.499999 0 0 0 -.009766-.2871094z"
     fill="#030303"
     opacity=".2"
     id="path21" />
  <path
     d="m8 .5a7.499999 7.499999 0 0 0 -7.5 7.5 7.499999 7.499999 0 0 0 .00976562.2871094 7.499999 7.499999 0 0 1 7.49023438-7.2871094 7.499999 7.499999 0 0 1 7.490234 7.2128906 7.499999 7.499999 0 0 0 .009766-.2128906 7.499999 7.499999 0 0 0 -7.5-7.5z"
     fill="#fff"
     opacity=".3"
     id="path23" />
  <g
     transform="matrix(-0.43171026,0,0,-0.43149781,16.390646,15.243748)"
     id="g6"
     style="fill:#f76363">
    <path
       d="M 12.032543,1.4216386 3.0376579,16.57071 c -0.238503,0.401708 -0.1057194,0.917641 0.2959889,1.156145 l 7.9758092,4.735823 c 0.401708,0.238503 0.915655,0.105719 1.154158,-0.29599 L 21.935261,6.2150703 C 22.173763,5.813362 22.042966,5.2974285 21.641258,5.0589256 l -6.126375,-3.637287 z"
       id="path2"
       inkscape:connector-curvature="0" />
    <path
       d="M 12.032543,1.4216386 3.0376579,16.57071 c -0.238503,0.401708 -0.1057194,0.917641 0.2959889,1.156145 l 7.9758092,4.735823 c 0.401708,0.238503 0.915655,0.105719 1.154158,-0.29599 L 21.935261,6.2150703 C 22.173763,5.813362 22.042966,5.2974285 21.641258,5.0589256 l -6.126375,-3.637287 z"
       id="path4"
       inkscape:connector-curvature="0" />
  </g>
  <path
     inkscape:connector-curvature="0"
     style="fill:#666666;stroke-width:0.43478262"
     d="M 6,14.630435 V 15.5 h 3.043478 v -0.869565 z m 5.652174,0 V 15.5 h 3.913043 v -0.869565 z"
     id="path8" />
  <path
     inkscape:connector-curvature="0"
     style="opacity:0.3;fill:#ffffff;stroke-width:0.43478262"
     d="m 6,14.630435 v 0.217391 h 3.043478 v -0.217391 z m 5.652174,0 v 0.217391 h 3.913043 v -0.217391 z"
     id="path16" />
  <path
     inkscape:connector-curvature="0"
     style="opacity:0.2;stroke-width:0.43478262"
     d="M 6,15.282609 V 15.5 h 3.043478 v -0.217391 z m 5.652174,0 V 15.5 h 3.913043 v -0.217391 z"
     id="path18" />
  <g
     id="g857"
     transform="matrix(-0.43171026,0,0,-0.43149781,16.390646,15.243748)"
     style="fill:#f76363">
    <path
       style="fill:#1a7fd4;fill-opacity:1;stroke-width:0.99815917"
       d="m 5.8847656,12.03125 -2.8457031,4.775391 c -0.238502,0.40023 -0.1087392,0.912765 0.2929687,1.15039 l 6.1269532,3.625 h 3.4824216 l 2.386719,-4.003906 z"
       transform="matrix(-1,0,0,-1.0036919,24.973444,23.083068)"
       id="path853"
       inkscape:connector-curvature="0"
       sodipodi:nodetypes="ccccccc" />
    <path
       style="fill:none;stroke-width:0.99815917"
       d="M 7.250072,9.7386166 3.038183,16.805953 c -0.238502,0.40023 -0.107705,0.914266 0.294003,1.151892 l 6.126375,3.623908 h 3.48234 v 0 l 3.765488,-6.318459"
       id="path882"
       transform="matrix(-1,0,0,-1.0036919,24.973444,23.083068)"
       inkscape:connector-curvature="0" />
    <path
       style="fill:none;stroke-width:0.99815917"
       d="m 16.706389,15.263294 5.229397,-8.77489 C 22.174289,6.0881736 22.041505,5.5741384 21.639797,5.3365117 L 13.663988,0.61810847 C 13.26228,0.38048275 12.748333,0.51277833 12.50983,0.91300973 L 7.250072,9.7386166"
       id="path855"
       transform="matrix(-1,0,0,-1.0036919,24.973444,23.083068)"
       inkscape:connector-curvature="0" />
  </g>
  <g
     transform="matrix(-0.43478261,0,0,-0.43318335,13.991402,19.3767)"
     id="g863"
     style="fill:#912b2b;fill-opacity:1" />
  <g
     transform="matrix(-0.43478261,0,0,-0.43318335,17.851743,12.882806)"
     id="g902"
     style="fill:#da0e0e;fill-opacity:1" />
  <g
     transform="matrix(-0.43171026,0,0,-0.43149781,16.390646,15.243748)"
     id="g972"
     style="fill:#f76363">
    <path
       inkscape:connector-curvature="0"
       style="opacity:0.2;fill:#000000;fill-opacity:1;stroke-width:0.99268925"
       d="m 21.949219,5.7753906 c -0.01929,0.063919 -0.03071,0.1293545 -0.06641,0.1894532 L 12.951172,21 H 9.4941406 L 3.4101562,17.390625 C 3.2299689,17.283696 3.112172,17.117066 3.0507812,16.933594 c -0.1079713,0.359576 0.021263,0.756385 0.359375,0.957031 L 9.4941406,21.5 h 3.4570314 l 8.93164,-15.0351562 c 0.129543,-0.2180792 0.140853,-0.4671541 0.06641,-0.6894532 z"
       transform="matrix(-1.0071167,0,0,-1.0076126,25.075681,23.085029)"
       id="path970" />
  </g>
  <g
     style="fill:#f76363"
     id="g978"
     transform="matrix(-0.43171026,0,0,-0.43149781,16.390646,15.243748)">
    <path
       inkscape:connector-curvature="0"
       style="opacity:0.3;fill:#ffffff;fill-opacity:1;stroke-width:0.99268925"
       d="m 13.355469,0.5078125 c -0.3229,-0.0441071 -0.654418,0.10529132 -0.832031,0.40429688 L 3.1191406,16.742188 c -0.1298984,0.218679 -0.1429921,0.468659 -0.068359,0.691406 0.019402,-0.06461 0.032287,-0.13068 0.068359,-0.191406 L 12.523438,1.4121094 c 0.236817,-0.3986741 0.747615,-0.531623 1.146484,-0.2949219 l 7.917969,4.7011719 c 0.180683,0.1072231 0.299678,0.2729427 0.361328,0.4570312 0.108685,-0.3600987 -0.02259,-0.7560112 -0.361328,-0.9570312 L 13.669922,0.6171875 c -0.09972,-0.0591753 -0.20682,-0.0946726 -0.314453,-0.109375 z"
       transform="matrix(-1.0071167,0,0,-1.0076126,25.075681,23.085029)"
       id="path976" />
  </g>
</svg>
